_includes/icons/ios-starfish.svg

<svg fill="#666" height="50" viewBox="0 0 50 50" width="50" xmlns="http://www.w3.org/2000/svg"><path d="m23.75 1.84375c-1.097656.011719-2.160156.816406-2.46875 2.03125-.015625.0625-.027344.125-.03125.1875 0 0-.144531 2.007813-.53125 4.53125-.386719 2.523438-1.015625 5.5625-1.875 7.4375-.34375.75-.710937 1.03125-1.15625 1.21875-.445312.1875-1.0625.222656-1.8125.1875-8.265625-.394531-12.6875.070313-12.9375.09375v-.03125c-.035156-.003906-.058594.03125-.09375.03125h-.09375v.03125c-1.234375.003906-2.289062.777344-2.625 1.78125-.347656 1.039063.0625 2.335938 1.15625 3.03125l-.03125.03125s.0625.03125.0625.03125c.078125.054688 3.714844 2.617188 11.1875 6.6875 1.40625.765625 1.847656 2.121094 1.1875 3.59375-2.328125 5.203125-4.957031 11.71875-4.96875 11.75v.03125c-.496094 1.21875.03125 2.519531.9375 3.15625.871094.609375 2.144531.660156 3.15625-.0625l.03125.03125s.121094-.089844.125-.09375c.210938-.125 5.84375-3.425781 10.65625-7.96875.84375-.796875 1.378906-.949219 1.71875-.9375s.703125.195313 1.1875.65625c4.90625 4.691406 10.351563 8.15625 10.5 8.25.003906 0 .09375.0625.09375.0625v-.03125c1.019531.769531 2.332031.71875 3.21875.09375.890625-.625 1.390625-1.894531.9375-3.09375h.03125s-.03125-.09375-.03125-.09375c-.039062-.121094-2.523437-7.980469-4.09375-12.0625-.339844-.886719-.449219-1.472656-.40625-1.78125s.15625-.542969.8125-1c3.699219-2.585937 11.066406-7.167969 11.09375-7.1875.015625-.007812.019531-.023437.03125-.03125 1.109375-.691406 1.507813-2.015625 1.15625-3.0625-.347656-1.03125-1.4375-1.855469-2.71875-1.8125v-.03125h-.09375c-.117187-.003906-8.039062-.136719-12.84375.03125-.945312.035156-1.761719-.003906-2.21875-.1875s-.703125-.367187-.875-1.28125c-1.53125-8.125-4.472656-12.167969-4.625-12.375-.003906-.007812.003906-.023437 0-.03125-.003906-.003906-.09375-.125-.09375-.125l-.03125.03125c-.582031-1.0625-1.578125-1.730469-2.625-1.71875zm.03125 2c.253906-.003906.625.140625.90625.71875.035156.054688.078125.109375.125.15625 0 0 2.839844 3.734375 4.34375 11.71875.261719 1.386719 1.125 2.382813 2.125 2.78125 1 .398438 2.015625.347656 3 .3125 4.71875-.164062 12.84375-.03125 12.84375-.03125h.09375c.464844-.035156.65625.1875.75.46875s.074219.519531-.3125.75v.03125s-7.367187 4.550781-11.1875 7.21875c-.902344.632813-1.523437 1.441406-1.65625 2.375-.132812.933594.121094 1.800781.5 2.78125 1.523438 3.964844 4.09375 12.03125 4.09375 12.03125.007813.03125.019531.0625.03125.09375.164063.382813.046875.59375-.21875.78125s-.59375.25-.9375-.03125c-.027344-.035156-.058594-.066406-.09375-.09375 0 0-5.492187-3.484375-10.28125-8.0625-.644531-.613281-1.460937-1.175781-2.5-1.21875-1.039062-.042969-2.089844.464844-3.15625 1.46875-4.679687 4.417969-10.40625 7.8125-10.40625 7.8125-.042969.027344-.085937.058594-.125.09375-.34375.28125-.671875.21875-.9375.03125s-.382812-.398437-.21875-.78125c0 0 2.628906-6.558594 4.9375-11.71875 1.035156-2.308594.15625-4.949219-2.0625-6.15625-7.480469-4.074219-11.03125-6.59375-11.03125-6.59375-.019531-.023437-.039062-.042969-.0625-.0625-.386719-.230469-.40625-.46875-.3125-.75s.285156-.503906.75-.46875c.050781.003906.105469.003906.15625 0 0 0 4.449219-.464844 12.84375-.0625.871094.042969 1.800781.03125 2.6875-.34375s1.679688-1.140625 2.1875-2.25c1.035156-2.253906 1.632813-5.367187 2.03125-7.96875.382813-2.496094.519531-4.339844.53125-4.5.121094-.476562.308594-.527344.5625-.53125zm12.28125 18.125c-.664062 0-1.1875.523438-1.1875 1.1875 0 .664063.523438 1.21875 1.1875 1.21875.664063 0 1.21875-.554687 1.21875-1.21875 0-.664062-.554687-1.1875-1.21875-1.1875zm-18.4375 1.84375c-.664062 0-1.21875.523438-1.21875 1.1875 0 .664063.554688 1.21875 1.21875 1.21875.664063 0 1.21875-.554687 1.21875-1.21875 0-.664062-.554687-1.1875-1.21875-1.1875zm7.375 1.1875c-1.019531 0-1.84375.824219-1.84375 1.84375s.824219 1.84375 1.84375 1.84375 1.84375-.824219 1.84375-1.84375-.824219-1.84375-1.84375-1.84375zm9.21875 13.5625c-.664062 0-1.21875.554688-1.21875 1.21875 0 .664063.554688 1.1875 1.21875 1.1875.664063 0 1.21875-.523437 1.21875-1.1875 0-.664062-.554687-1.21875-1.21875-1.21875z"/></svg>

<svg xmlns="http://www.w3.org/2000/svg" viewBox="0 0 50 50" width="50" height="50" fill="#666"><path d="M 23.75 1.84375 C 22.652344 1.855469 21.589844 2.660156 21.28125 3.875 C 21.265625 3.9375 21.253906 4 21.25 4.0625 C 21.25 4.0625 21.105469 6.070313 20.71875 8.59375 C 20.332031 11.117188 19.703125 14.15625 18.84375 16.03125 C 18.5 16.78125 18.132813 17.0625 17.6875 17.25 C 17.242188 17.4375 16.625 17.472656 15.875 17.4375 C 7.609375 17.042969 3.1875 17.507813 2.9375 17.53125 L 2.9375 17.5 C 2.902344 17.496094 2.878906 17.53125 2.84375 17.53125 C 2.84375 17.53125 2.75 17.53125 2.75 17.53125 L 2.75 17.5625 C 1.515625 17.566406 0.460938 18.339844 0.125 19.34375 C -0.222656 20.382813 0.1875 21.679688 1.28125 22.375 L 1.25 22.40625 C 1.25 22.40625 1.3125 22.4375 1.3125 22.4375 C 1.390625 22.492188 5.027344 25.054688 12.5 29.125 C 13.90625 29.890625 14.347656 31.246094 13.6875 32.71875 C 11.359375 37.921875 8.730469 44.4375 8.71875 44.46875 C 8.71875 44.46875 8.71875 44.5 8.71875 44.5 C 8.222656 45.71875 8.75 47.019531 9.65625 47.65625 C 10.527344 48.265625 11.800781 48.316406 12.8125 47.59375 L 12.84375 47.625 C 12.84375 47.625 12.964844 47.535156 12.96875 47.53125 C 13.179688 47.40625 18.8125 44.105469 23.625 39.5625 C 24.46875 38.765625 25.003906 38.613281 25.34375 38.625 C 25.683594 38.636719 26.046875 38.820313 26.53125 39.28125 C 31.4375 43.972656 36.882813 47.4375 37.03125 47.53125 C 37.035156 47.53125 37.125 47.59375 37.125 47.59375 L 37.125 47.5625 C 38.144531 48.332031 39.457031 48.28125 40.34375 47.65625 C 41.234375 47.03125 41.734375 45.761719 41.28125 44.5625 L 41.3125 44.5625 C 41.3125 44.5625 41.28125 44.46875 41.28125 44.46875 C 41.242188 44.347656 38.757813 36.488281 37.1875 32.40625 C 36.847656 31.519531 36.738281 30.933594 36.78125 30.625 C 36.824219 30.316406 36.9375 30.082031 37.59375 29.625 C 41.292969 27.039063 48.660156 22.457031 48.6875 22.4375 C 48.703125 22.429688 48.707031 22.414063 48.71875 22.40625 C 49.828125 21.714844 50.226563 20.390625 49.875 19.34375 C 49.527344 18.3125 48.4375 17.488281 47.15625 17.53125 L 47.15625 17.5 C 47.15625 17.5 47.0625 17.5 47.0625 17.5 C 46.945313 17.496094 39.023438 17.363281 34.21875 17.53125 C 33.273438 17.566406 32.457031 17.527344 32 17.34375 C 31.542969 17.160156 31.296875 16.976563 31.125 16.0625 C 29.59375 7.9375 26.652344 3.894531 26.5 3.6875 C 26.496094 3.679688 26.503906 3.664063 26.5 3.65625 C 26.496094 3.652344 26.40625 3.53125 26.40625 3.53125 L 26.375 3.5625 C 25.792969 2.5 24.796875 1.832031 23.75 1.84375 Z M 23.78125 3.84375 C 24.035156 3.839844 24.40625 3.984375 24.6875 4.5625 C 24.722656 4.617188 24.765625 4.671875 24.8125 4.71875 C 24.8125 4.71875 27.652344 8.453125 29.15625 16.4375 C 29.417969 17.824219 30.28125 18.820313 31.28125 19.21875 C 32.28125 19.617188 33.296875 19.566406 34.28125 19.53125 C 39 19.367188 47.125 19.5 47.125 19.5 C 47.15625 19.5 47.1875 19.5 47.21875 19.5 C 47.683594 19.464844 47.875 19.6875 47.96875 19.96875 C 48.0625 20.25 48.042969 20.488281 47.65625 20.71875 C 47.65625 20.730469 47.65625 20.738281 47.65625 20.75 C 47.65625 20.75 40.289063 25.300781 36.46875 27.96875 C 35.566406 28.601563 34.945313 29.410156 34.8125 30.34375 C 34.679688 31.277344 34.933594 32.144531 35.3125 33.125 C 36.835938 37.089844 39.40625 45.15625 39.40625 45.15625 C 39.414063 45.1875 39.425781 45.21875 39.4375 45.25 C 39.601563 45.632813 39.484375 45.84375 39.21875 46.03125 C 38.953125 46.21875 38.625 46.28125 38.28125 46 C 38.253906 45.964844 38.222656 45.933594 38.1875 45.90625 C 38.1875 45.90625 32.695313 42.421875 27.90625 37.84375 C 27.261719 37.230469 26.445313 36.667969 25.40625 36.625 C 24.367188 36.582031 23.316406 37.089844 22.25 38.09375 C 17.570313 42.511719 11.84375 45.90625 11.84375 45.90625 C 11.800781 45.933594 11.757813 45.964844 11.71875 46 C 11.375 46.28125 11.046875 46.21875 10.78125 46.03125 C 10.515625 45.84375 10.398438 45.632813 10.5625 45.25 C 10.5625 45.25 13.191406 38.691406 15.5 33.53125 C 16.535156 31.222656 15.65625 28.582031 13.4375 27.375 C 5.957031 23.300781 2.40625 20.78125 2.40625 20.78125 C 2.386719 20.757813 2.367188 20.738281 2.34375 20.71875 C 1.957031 20.488281 1.9375 20.25 2.03125 19.96875 C 2.125 19.6875 2.316406 19.464844 2.78125 19.5 C 2.832031 19.503906 2.886719 19.503906 2.9375 19.5 C 2.9375 19.5 7.386719 19.035156 15.78125 19.4375 C 16.652344 19.480469 17.582031 19.46875 18.46875 19.09375 C 19.355469 18.71875 20.148438 17.953125 20.65625 16.84375 C 21.691406 14.589844 22.289063 11.476563 22.6875 8.875 C 23.070313 6.378906 23.207031 4.535156 23.21875 4.375 C 23.339844 3.898438 23.527344 3.847656 23.78125 3.84375 Z M 36.0625 21.96875 C 35.398438 21.96875 34.875 22.492188 34.875 23.15625 C 34.875 23.820313 35.398438 24.375 36.0625 24.375 C 36.726563 24.375 37.28125 23.820313 37.28125 23.15625 C 37.28125 22.492188 36.726563 21.96875 36.0625 21.96875 Z M 17.625 23.8125 C 16.960938 23.8125 16.40625 24.335938 16.40625 25 C 16.40625 25.664063 16.960938 26.21875 17.625 26.21875 C 18.289063 26.21875 18.84375 25.664063 18.84375 25 C 18.84375 24.335938 18.289063 23.8125 17.625 23.8125 Z M 25 25 C 23.980469 25 23.15625 25.824219 23.15625 26.84375 C 23.15625 27.863281 23.980469 28.6875 25 28.6875 C 26.019531 28.6875 26.84375 27.863281 26.84375 26.84375 C 26.84375 25.824219 26.019531 25 25 25 Z M 34.21875 38.5625 C 33.554688 38.5625 33 39.117188 33 39.78125 C 33 40.445313 33.554688 40.96875 34.21875 40.96875 C 34.882813 40.96875 35.4375 40.445313 35.4375 39.78125 C 35.4375 39.117188 34.882813 38.5625 34.21875 38.5625 Z"/></svg>
